build/logo/KasperskyOutline.svg

<svg xmlns="http://www.w3.org/2000/svg" fill="none" viewBox="0 0 24 24" focusable="false"><path d="M0 0H24V24H0z"/><path fill="#74767B" fill-rule="evenodd" d="M7.58691 4.33594L5.54248 5.51611C5.22705 5.69824 5.12256 6.08887 5.30469 6.40405C5.48682 6.71924 5.87744 6.82397 6.19238 6.64185L8.23682 5.46167L10.8252 3.96729C11.0068 3.86247 11.1956 3.78377 11.3916 3.7312C11.5874 3.67871 11.79 3.65259 12 3.65259C12.21 3.65259 12.4128 3.67879 12.6084 3.7312C12.8044 3.78377 12.9932 3.86247 13.1748 3.96729L15.7632 5.46167L17.8076 6.64185C18.1226 6.82397 18.5137 6.71924 18.6953 6.40405C18.8774 6.08887 18.7729 5.69824 18.4575 5.51611L16.4136 4.33594L13.8252 2.84155C13.5426 2.67847 13.2493 2.55623 12.9453 2.47485C12.6411 2.39331 12.3262 2.35254 12 2.35254C11.6738 2.35254 11.3589 2.39331 11.0547 2.47485C10.7507 2.55623 10.4574 2.67847 10.1748 2.84155L7.58691 4.33594ZM6.74365 8.00146L11.1597 5.45166C11.2876 5.37793 11.4199 5.32275 11.5576 5.28589C11.6953 5.24902 11.8374 5.23071 11.9849 5.23071C12.1323 5.23071 12.2747 5.2491 12.4121 5.28589C12.5498 5.32275 12.6821 5.37793 12.8101 5.45166L17.2266 8.00146C17.354 8.0752 17.4683 8.16235 17.5688 8.26294C17.6694 8.36377 17.7568 8.47778 17.8301 8.60547C17.9038 8.73315 17.9595 8.86572 17.9961 9.00317C18.0327 9.14062 18.0513 9.28296 18.0513 9.43042L18.0513 14.53C18.0513 14.6775 18.0329 14.8199 17.9961 14.9573C17.9595 15.0947 17.9038 15.2275 17.8301 15.3552C17.7568 15.4827 17.6694 15.5969 17.5688 15.6975C17.4683 15.7981 17.354 15.8855 17.2266 15.959L12.8101 18.5088C12.6821 18.5825 12.5498 18.6379 12.4121 18.6748C12.2749 18.7114 12.1323 18.73 11.9849 18.73C11.8374 18.73 11.6953 18.7114 11.5576 18.6748C11.4199 18.6379 11.2876 18.5825 11.1597 18.5088L6.74365 15.959C6.61572 15.8855 6.50146 15.7981 6.40088 15.6975C6.30029 15.5969 6.21338 15.4827 6.13965 15.3552C6.06592 15.2275 6.01074 15.095 5.97363 14.9575C5.93701 14.8198 5.91846 14.6775 5.91846 14.53L5.91846 9.43042C5.91846 9.28296 5.93701 9.14062 5.97363 9.00317C6.01042 8.86564 6.06576 8.73307 6.13965 8.60547C6.21338 8.47778 6.30029 8.36377 6.40088 8.26294C6.50179 8.16235 6.61605 8.0752 6.74365 8.00146ZM11.8101 6.57739L7.3208 9.18286C7.30518 9.20996 7.22607 9.40137 7.21826 9.43042L7.21826 14.53C7.21826 14.5613 7.25732 14.676 7.26514 14.7051C7.28076 14.7322 7.37207 14.8118 7.39355 14.8333L11.8101 17.3831C11.8369 17.3987 11.9556 17.4221 11.9849 17.4299C12.0161 17.4299 12.1309 17.3909 12.1597 17.3831L16.5762 14.8333C16.6035 14.8176 16.6831 14.7266 16.7046 14.7051C16.7202 14.678 16.7437 14.5593 16.7515 14.53L16.7515 9.43042C16.7515 9.39917 16.7124 9.28467 16.7046 9.25537C16.689 9.22827 16.5977 9.14868 16.5762 9.12744L12.1597 6.57739C12.1328 6.56177 12.0142 6.53833 11.9849 6.53052C11.9536 6.53052 11.8389 6.56958 11.8101 6.57739ZM4.47314 9.61963C4.47314 9.25562 4.1875 8.96973 3.82324 8.96973C3.45947 8.96973 3.17334 9.25562 3.17334 9.61963L3.17334 11.98L3.17334 14.9688C3.17334 15.2948 3.21403 15.6099 3.29541 15.9141C3.37695 16.2183 3.49951 16.5115 3.66211 16.7939C3.8252 17.0762 4.01807 17.3286 4.24072 17.5513C4.46338 17.7739 4.71582 17.9668 4.99854 18.1299L7.58691 19.6243L9.63086 20.8044C9.94629 20.9863 10.3369 20.8818 10.5186 20.5664C10.7007 20.2512 10.5962 19.8606 10.2808 19.6785L8.23682 18.4983L5.64844 17.0039C5.28467 16.7942 4.99805 16.5073 4.78809 16.1438C4.68311 15.9622 4.60449 15.7732 4.55225 15.5774C4.49951 15.3816 4.47314 15.1787 4.47314 14.9688L4.47314 11.98L4.47314 9.61963ZM20.8267 9.61963L20.8267 14.9688C20.8267 15.6208 20.6636 16.2292 20.3379 16.7939C20.0117 17.3584 19.5664 17.8037 19.002 18.1299L16.4136 19.6243L14.3691 20.8044C14.0542 20.9863 13.6631 20.8818 13.4814 20.5664C13.2993 20.2512 13.4038 19.8606 13.7192 19.6785L18.3516 17.0039C18.5335 16.8991 18.6961 16.775 18.8394 16.6316C18.9829 16.4882 19.1071 16.3256 19.2119 16.1438C19.3169 15.9622 19.3955 15.7732 19.4482 15.5774C19.5005 15.3816 19.5269 15.1787 19.5269 14.9688L19.5269 9.61963C19.5269 9.25562 19.8125 8.96973 20.1768 8.96973C20.5405 8.96973 20.8267 9.25562 20.8267 9.61963Z"/></svg>

<svg xmlns="http://www.w3.org/2000/svg" fill="none" viewBox="0 0 24 24" focusable="false"><path fill="#74767B" fill-rule="evenodd" d="M7.58 4.33 5.54 5.51c-.32.18-.42.57-.24.89.18.31.57.42.89.24l2.04-1.18 2.59-1.5c.18-.1.37-.18.57-.23.19-.06.4-.08.61-.08s.41.02.6.08c.2.05.39.13.57.23l2.59 1.5 2.04 1.18c.32.18.71.07.89-.24.18-.32.08-.71-.24-.89l-2.04-1.18-2.59-1.49c-.28-.17-.58-.29-.88-.37s-.62-.12-.94-.12c-.33 0-.65.04-.95.12s-.6.2-.88.37zM6.74 8l4.41-2.55a1.535 1.535 0 0 1 .83-.22 1.54 1.54 0 0 1 .83.22L17.22 8c.13.07.24.16.34.26s.19.21.27.34c.07.13.12.26.16.4s.06.28.06.43v5.1q0 .21-.06.42c-.04.14-.09.27-.16.4-.08.13-.17.24-.27.34s-.21.19-.34.26l-4.41 2.55c-.13.08-.27.13-.4.17a1.54 1.54 0 0 1-.86 0c-.14-.04-.27-.09-.4-.17l-4.41-2.55a1.5 1.5 0 0 1-.34-.26c-.1-.1-.19-.21-.27-.34-.07-.13-.12-.26-.16-.4q-.06-.21-.06-.42v-5.1c0-.15.02-.29.06-.43s.09-.27.16-.4c.08-.13.17-.24.27-.34s.21-.19.34-.26m5.07-1.43L7.32 9.18c-.02.02-.1.22-.11.25v5.1c0 .03.04.14.05.17.02.03.11.11.13.13l4.42 2.55c.02.01.14.04.17.04s.15-.03.17-.04l4.42-2.55c.03-.02.11-.11.13-.13.02-.03.04-.15.05-.17v-5.1c0-.04-.04-.15-.05-.18-.02-.03-.11-.11-.13-.13l-4.42-2.55a1 1 0 0 0-.17-.04c-.03 0-.15.03-.17.04M4.47 9.61c0-.36-.29-.65-.65-.65-.37 0-.65.29-.65.65v5.35c0 .33.04.64.12.95.08.3.2.6.37.88a3.56 3.56 0 0 0 1.33 1.33l2.59 1.5 2.05 1.18c.31.18.7.08.88-.24.19-.31.08-.7-.23-.89l-2.05-1.18L5.64 17c-.36-.21-.65-.5-.86-.86-.1-.18-.18-.37-.23-.57-.06-.19-.08-.4-.08-.61V9.61m16.35 0v5.35c0 .66-.16 1.26-.49 1.83-.32.56-.77 1.01-1.33 1.33l-2.59 1.5-2.05 1.18c-.31.18-.7.08-.88-.24-.19-.31-.08-.7.23-.89L18.35 17c.18-.11.34-.23.48-.37.15-.15.27-.31.38-.49.1-.18.18-.37.23-.57.06-.19.08-.4.08-.61V9.61c0-.36.29-.65.65-.65.37 0 .65.29.65.65"/></svg>
